X:4609
T:New Roundabout, The
O:england
R:polka
M:2/4
L:1/8
K:D
de fg|a2 af|g>g fe|df AA|de fg|aa/a/ af|gg/g/ fe|1 d2 dA:|2 d2 cd||
|:ee/e/ fe|df af|ee/e/ fe|dB BA|ee/e/ fe|df af|gg/g/ fe|1 d2 cd:|2 d2 dA||


